_includes/icons/ios-keyboard.svg

<svg fill="#666" height="50" viewBox="0 0 50 50" width="50" xmlns="http://www.w3.org/2000/svg"><path d="m36.9375 2.84375c0 3.09375-.722656 4.460938-1.65625 5.21875-.933594.757813-2.355469.996094-3.96875 1.21875s-3.414062.429688-4.90625 1.625c-1.238281.992188-2.09375 2.632813-2.34375 5.09375h-20.0625c-2.199219 0-4 1.800781-4 4v20c0 2.199219 1.800781 4 4 4h42c2.199219 0 4-1.800781 4-4v-20c0-2.199219-1.800781-4-4-4h-19.90625c.214844-1.9375.816406-2.933594 1.5625-3.53125.929688-.746094 2.320313-.964844 3.9375-1.1875 1.617188-.222656 3.445313-.441406 4.9375-1.65625 1.492188-1.214844 2.40625-3.355469 2.40625-6.78125zm-32.9375 15.15625h42c1.117188 0 2 .882813 2 2v20c0 1.117188-.882812 2-2 2h-42c-1.117187 0-2-.882812-2-2v-20c0-1.117187.882813-2 2-2zm1 4v4h4v-4zm6 0v4h4v-4zm6 0v4h4v-4zm6 0v4h4v-4zm6 0v4h4v-4zm6 0v4h4v-4zm6 0v4h4v-4zm-36 6v4h7v-4zm9 0v4h4v-4zm6 0v4h4v-4zm6 0v4h4v-4zm6 0v4h4v-4zm6 0v4h7v-4zm-33 6v4h4v-4zm6 0v4h4v-4zm6 0v4h16v-4zm18 0v4h4v-4zm6 0v4h4v-4z"/></svg>

<svg xmlns="http://www.w3.org/2000/svg" viewBox="0 0 50 50" width="50" height="50" fill="#666"><path d="M 36.9375 2.84375 C 36.9375 5.9375 36.214844 7.304688 35.28125 8.0625 C 34.347656 8.820313 32.925781 9.058594 31.3125 9.28125 C 29.699219 9.503906 27.898438 9.710938 26.40625 10.90625 C 25.167969 11.898438 24.3125 13.539063 24.0625 16 L 4 16 C 1.800781 16 0 17.800781 0 20 L 0 40 C 0 42.199219 1.800781 44 4 44 L 46 44 C 48.199219 44 50 42.199219 50 40 L 50 20 C 50 17.800781 48.199219 16 46 16 L 26.09375 16 C 26.308594 14.0625 26.910156 13.066406 27.65625 12.46875 C 28.585938 11.722656 29.976563 11.503906 31.59375 11.28125 C 33.210938 11.058594 35.039063 10.839844 36.53125 9.625 C 38.023438 8.410156 38.9375 6.269531 38.9375 2.84375 Z M 4 18 L 46 18 C 47.117188 18 48 18.882813 48 20 L 48 40 C 48 41.117188 47.117188 42 46 42 L 4 42 C 2.882813 42 2 41.117188 2 40 L 2 20 C 2 18.882813 2.882813 18 4 18 Z M 5 22 L 5 26 L 9 26 L 9 22 Z M 11 22 L 11 26 L 15 26 L 15 22 Z M 17 22 L 17 26 L 21 26 L 21 22 Z M 23 22 L 23 26 L 27 26 L 27 22 Z M 29 22 L 29 26 L 33 26 L 33 22 Z M 35 22 L 35 26 L 39 26 L 39 22 Z M 41 22 L 41 26 L 45 26 L 45 22 Z M 5 28 L 5 32 L 12 32 L 12 28 Z M 14 28 L 14 32 L 18 32 L 18 28 Z M 20 28 L 20 32 L 24 32 L 24 28 Z M 26 28 L 26 32 L 30 32 L 30 28 Z M 32 28 L 32 32 L 36 32 L 36 28 Z M 38 28 L 38 32 L 45 32 L 45 28 Z M 5 34 L 5 38 L 9 38 L 9 34 Z M 11 34 L 11 38 L 15 38 L 15 34 Z M 17 34 L 17 38 L 33 38 L 33 34 Z M 35 34 L 35 38 L 39 38 L 39 34 Z M 41 34 L 41 38 L 45 38 L 45 34 Z"/></svg>
